Newaita-dark/apps/24/rednotebook.svg

<svg height="24" viewBox="0 0 24 24" width="24" xmlns="http://www.w3.org/2000/svg" xmlns:xlink="http://www.w3.org/1999/xlink"><linearGradient id="a" gradientUnits="userSpaceOnUse" x1="11.90739" x2="11.90739" y1="21.02545225" y2="22.01773525002"><stop offset="0" stop-opacity=".27451"/><stop offset="1" stop-opacity="0"/></linearGradient><linearGradient id="b"><stop offset="0" stop-opacity=".313726"/><stop offset=".222222" stop-opacity=".27451"/><stop offset="1" stop-opacity="0"/></linearGradient><radialGradient id="c" cx="450.908936" cy="189.579361" gradientTransform="matrix(.00000013 -.0585994 -.105479 -.00000008 37.609564 47.696499)" gradientUnits="userSpaceOnUse" r="21.166656" xlink:href="#b"/><radialGradient id="d" cx="450.908936" cy="189.579361" gradientTransform="matrix(-.00000013 .0585994 .105479 .00000008 -13.794787 -5.64561)" gradientUnits="userSpaceOnUse" r="21.166656" xlink:href="#b"/><radialGradient id="e" cx="450.908936" cy="189.579361" gradientTransform="matrix(-.00000013 -.0585994 .105479 -.00000008 -13.794787 47.696499)" gradientUnits="userSpaceOnUse" r="21.166656" xlink:href="#b"/><radialGradient id="f" cx="450.908936" cy="189.579361" gradientTransform="matrix(.00000013 .0585994 -.105479 .00000008 37.609563 -5.64561)" gradientUnits="userSpaceOnUse" r="21.166656" xlink:href="#b"/><linearGradient id="g"><stop offset="0" stop-color="#f44336"/><stop offset="1" stop-color="#ef5350"/></linearGradient><linearGradient id="h" gradientTransform="matrix(.0565122 0 0 .163059 -4.39051 25.231011)" gradientUnits="userSpaceOnUse" x1="306.916656" x2="305.954559" xlink:href="#g" y1="-25.791676" y2="-141.414581"/><linearGradient id="i" gradientTransform="matrix(4.556143 0 0 13.146184 -353.972656 2034.180176)" gradientUnits="userSpaceOnUse" x1="165.484848" x2="165.484848" xlink:href="#g" y1="-25.791672" y2="-141.414581"/><linearGradient id="j" gradientUnits="userSpaceOnUse" x1="349.249728" x2="349.249728" y1="233.4994349526" y2="-168.66671710991"><stop offset="0" stop-color="#ffa726"/><stop offset="1" stop-color="#ffb74d"/></linearGradient><linearGradient id="k" gradientUnits="userSpaceOnUse" x1="4.96141325005" x2="4.96141325005" xlink:href="#g" y1="7.87771701563" y2="6.88543434376"/><linearGradient id="l" gradientUnits="userSpaceOnUse" x1="4.96141325005" x2="4.96141325005" xlink:href="#g" y1="16.06404601563" y2="15.07176334376"/><path d="m5.953125 21.027344h11.90625v.992187h-11.90625zm0 0" fill="url(#a)"/><path d="m17.859375 21.027344h1.984375v-.996094h-1.984375zm0 0" fill="url(#c)"/><path d="m5.953125 21.027344h-1.984375v.992187h1.984375zm0 0" fill="url(#d)"/><path d="m5.953125 21.027344h-1.984375v-.996094h1.984375zm0 0" fill="url(#e)"/><path d="m17.859375 21.027344h1.984375v.992187h-1.984375zm0 0" fill="url(#f)"/><path d="m4.960938 2.171875h13.890624c.550782 0 .992188.445313.992188.992187v16.867188c0 .550781-.441406.996094-.992188.996094h-13.890624c-.546876 0-.992188-.445313-.992188-.996094v-16.867188c0-.546874.445312-.992187.992188-.992187zm0 0" fill="url(#h)"/><path d="m148.152519-147.506445v359.798974h243.393424c5.916101 0 10.582322-4.666221 10.582322-10.582323v-338.634329c0-5.832776-4.666221-10.582322-10.582322-10.582322zm0 0" style="fill:none;stroke-width:8;stroke-linecap:round;stroke-linejoin:round;stroke:#ffa726;stroke-dasharray:16.000002 16.000002;stroke-dashoffset:7.200001" transform="matrix(.0468795 0 0 .0468795 0 10.079087)"/><path d="m399.961827 175.101398c-44.405211 0-79.992366 35.587155-79.992366 79.992365v1359.870211c0 44.40521 35.587155 80.307296 79.992366 80.307296h119.988548v-1520.169872zm0 0" fill="url(#i)" stroke="#212121" stroke-linecap="round" stroke-width="11.338583" transform="scale(.0124035)"/><path d="m4.960938 20.96875c-.550782 0-.992188-.441406-.992188-.992188v-.125c0 .550782.441406.992188.992188.992188h13.890624c.550782 0 .992188-.441406.992188-.992188v.125c0 .550782-.441406.992188-.992188.992188zm0 0" fill-opacity=".196078"/><path d="m328.052006-168.671091v253.975747c15.915147-42.329291 26.49747-42.329291 42.329291 0v-253.975747zm0 0" fill="url(#j)" stroke="#212121" stroke-linecap="round" stroke-linejoin="round" stroke-width="3" transform="matrix(.0468795 0 0 .0468795 0 10.079087)"/><path d="m4.960938 2.226562c-.550782 0-.992188.445313-.992188.992188v.125c0-.550781.441406-.992188.992188-.992188h13.890624c.550782 0 .992188.441407.992188.992188v-.125c0-.546875-.441406-.992188-.992188-.992188zm0 0" fill="#fff" fill-opacity=".392157"/><path d="m4.960938 2.101562c-.585938 0-1.0625.476563-1.0625 1.0625v16.867188c0 .589844.476562 1.066406 1.0625 1.066406h13.890624c.589844 0 1.0625-.476562 1.0625-1.066406v-16.867188c0-.585937-.472656-1.0625-1.0625-1.0625zm0 .140626h13.890624c.515626 0 .921876.410156.921876.921874v16.867188c0 .515625-.40625.925781-.921876.925781h-13.890624c-.511719 0-.921876-.410156-.921876-.925781v-16.867188c0-.511718.410157-.921874.921876-.921874zm0 0" fill="#212121"/><path d="m3.96875 6.886719h2.480469v.992187h-2.480469zm0 0" fill="url(#k)"/><path d="m3.96875 7.878906v.371094h2.480469v-.371094zm0 0" fill-opacity=".235294"/><path d="m3.96875 6.886719v.246093h2.480469v-.246093zm0 0" fill="#fff" fill-opacity=".392157"/><path d="m84.658596-20.472602h52.911613v21.164645h-52.911613zm0 0" fill="none" stroke="#212121" stroke-linecap="round" stroke-linejoin="round" stroke-width="3" transform="matrix(.0468795 0 0 .0468795 -.000001 7.846464)"/><path d="m3.96875 15.070312h2.480469v.992188h-2.480469zm0 0" fill="url(#l)"/><path d="m3.96875 16.0625v.375h2.480469v-.375zm0 0" fill-opacity=".235294"/><path d="m3.96875 15.070312v.25h2.480469v-.25zm0 0" fill="#fff" fill-opacity=".392157"/><path d="m84.658596-20.530951h52.911613v21.164646h-52.911613zm0 0" fill="none" stroke="#212121" stroke-linecap="round" stroke-linejoin="round" stroke-width="3" transform="matrix(.0468795 0 0 .0468795 -.000001 16.032793)"/><path d="m16.371094 12.589844c-.308594 0-.617188.496094-.992188 1.488281v.496094c.746094-1.984375 1.242188-1.984375 1.984375 0v-.496094c-.371093-.992187-.679687-1.488281-.992187-1.488281zm0 0" fill-opacity=".235294"/></svg>

<?xml version="1.0" encoding="UTF-8"?>
<svg xmlns="http://www.w3.org/2000/svg" xmlns:xlink="http://www.w3.org/1999/xlink" width="24px" height="24px" viewBox="0 0 24 24" version="1.1">
<defs>
<linearGradient id="linear0" gradientUnits="userSpaceOnUse" x1="254" y1="233.5" x2="254" y2="254.666672" gradientTransform="matrix(0.0468795,0,0,0.0468795,-0.0000028613,10.079089)">
<stop offset="0" style="stop-color:rgb(0%,0%,0%);stop-opacity:0.27451;"/>
<stop offset="1" style="stop-color:rgb(0%,0%,0%);stop-opacity:0;"/>
</linearGradient>
<radialGradient id="radial0" gradientUnits="userSpaceOnUse" cx="450.908936" cy="189.579361" fx="450.908936" fy="189.579361" r="21.166656" gradientTransform="matrix(0.000000130628,-0.0585994,-0.105479,-0.0000000761539,37.609564,47.696499)">
<stop offset="0" style="stop-color:rgb(0%,0%,0%);stop-opacity:0.313726;"/>
<stop offset="0.222222" style="stop-color:rgb(0%,0%,0%);stop-opacity:0.27451;"/>
<stop offset="1" style="stop-color:rgb(0%,0%,0%);stop-opacity:0;"/>
</radialGradient>
<radialGradient id="radial1" gradientUnits="userSpaceOnUse" cx="450.908936" cy="189.579361" fx="450.908936" fy="189.579361" r="21.166656" gradientTransform="matrix(-0.000000130628,0.0585994,0.105479,0.0000000761539,-13.794787,-5.64561)">
<stop offset="0" style="stop-color:rgb(0%,0%,0%);stop-opacity:0.313726;"/>
<stop offset="0.222222" style="stop-color:rgb(0%,0%,0%);stop-opacity:0.27451;"/>
<stop offset="1" style="stop-color:rgb(0%,0%,0%);stop-opacity:0;"/>
</radialGradient>
<radialGradient id="radial2" gradientUnits="userSpaceOnUse" cx="450.908936" cy="189.579361" fx="450.908936" fy="189.579361" r="21.166656" gradientTransform="matrix(-0.000000130628,-0.0585994,0.105479,-0.0000000761539,-13.794787,47.696499)">
<stop offset="0" style="stop-color:rgb(0%,0%,0%);stop-opacity:0.313726;"/>
<stop offset="0.222222" style="stop-color:rgb(0%,0%,0%);stop-opacity:0.27451;"/>
<stop offset="1" style="stop-color:rgb(0%,0%,0%);stop-opacity:0;"/>
</radialGradient>
<radialGradient id="radial3" gradientUnits="userSpaceOnUse" cx="450.908936" cy="189.579361" fx="450.908936" fy="189.579361" r="21.166656" gradientTransform="matrix(0.000000130628,0.0585994,-0.105479,0.0000000761539,37.609563,-5.64561)">
<stop offset="0" style="stop-color:rgb(0%,0%,0%);stop-opacity:0.313726;"/>
<stop offset="0.222222" style="stop-color:rgb(0%,0%,0%);stop-opacity:0.27451;"/>
<stop offset="1" style="stop-color:rgb(0%,0%,0%);stop-opacity:0;"/>
</radialGradient>
<linearGradient id="linear1" gradientUnits="userSpaceOnUse" x1="306.916656" y1="-25.791676" x2="305.954559" y2="-141.414581" gradientTransform="matrix(0.0565122,0,0,0.163059,-4.39051,25.231011)">
<stop offset="0" style="stop-color:rgb(95.686275%,26.274511%,21.176471%);stop-opacity:1;"/>
<stop offset="1" style="stop-color:rgb(93.725491%,32.549021%,31.37255%);stop-opacity:1;"/>
</linearGradient>
<linearGradient id="linear2" gradientUnits="userSpaceOnUse" x1="165.484848" y1="-25.791672" x2="165.484848" y2="-141.414581" gradientTransform="matrix(4.556143,0,0,13.146184,-353.972656,2034.180176)">
<stop offset="0" style="stop-color:rgb(95.686275%,26.274511%,21.176471%);stop-opacity:1;"/>
<stop offset="1" style="stop-color:rgb(93.725491%,32.549021%,31.37255%);stop-opacity:1;"/>
</linearGradient>
<linearGradient id="linear3" gradientUnits="userSpaceOnUse" x1="840" y1="1695.117188" x2="840" y2="175.117218" gradientTransform="matrix(0.264583,0,0,0.264583,127.000008,-214.999756)">
<stop offset="0" style="stop-color:rgb(100%,65.490198%,14.901961%);stop-opacity:1;"/>
<stop offset="1" style="stop-color:rgb(100%,71.764708%,30.19608%);stop-opacity:1;"/>
</linearGradient>
<linearGradient id="linear4" gradientUnits="userSpaceOnUse" x1="105.833344" y1="0.666667" x2="105.833344" y2="-20.499998" gradientTransform="matrix(0.0468795,0,0,0.0468795,-0.00000062506,7.846464)">
<stop offset="0" style="stop-color:rgb(95.686275%,26.274511%,21.176471%);stop-opacity:1;"/>
<stop offset="1" style="stop-color:rgb(93.725491%,32.549021%,31.37255%);stop-opacity:1;"/>
</linearGradient>
<linearGradient id="linear5" gradientUnits="userSpaceOnUse" x1="105.833344" y1="0.666667" x2="105.833344" y2="-20.499998" gradientTransform="matrix(0.0468795,0,0,0.0468795,-0.00000062506,16.032793)">
<stop offset="0" style="stop-color:rgb(95.686275%,26.274511%,21.176471%);stop-opacity:1;"/>
<stop offset="1" style="stop-color:rgb(93.725491%,32.549021%,31.37255%);stop-opacity:1;"/>
</linearGradient>
</defs>
<g id="surface1">
<path style=" stroke:none;fill-rule:nonzero;fill:url(#linear0);" d="M 5.953125 21.027344 L 17.859375 21.027344 L 17.859375 22.019531 L 5.953125 22.019531 Z M 5.953125 21.027344 "/>
<path style=" stroke:none;fill-rule:nonzero;fill:url(#radial0);" d="M 17.859375 21.027344 L 19.84375 21.027344 L 19.84375 20.03125 L 17.859375 20.03125 Z M 17.859375 21.027344 "/>
<path style=" stroke:none;fill-rule:nonzero;fill:url(#radial1);" d="M 5.953125 21.027344 L 3.96875 21.027344 L 3.96875 22.019531 L 5.953125 22.019531 Z M 5.953125 21.027344 "/>
<path style=" stroke:none;fill-rule:nonzero;fill:url(#radial2);" d="M 5.953125 21.027344 L 3.96875 21.027344 L 3.96875 20.03125 L 5.953125 20.03125 Z M 5.953125 21.027344 "/>
<path style=" stroke:none;fill-rule:nonzero;fill:url(#radial3);" d="M 17.859375 21.027344 L 19.84375 21.027344 L 19.84375 22.019531 L 17.859375 22.019531 Z M 17.859375 21.027344 "/>
<path style=" stroke:none;fill-rule:nonzero;fill:url(#linear1);" d="M 4.960938 2.171875 L 18.851562 2.171875 C 19.402344 2.171875 19.84375 2.617188 19.84375 3.164062 L 19.84375 20.03125 C 19.84375 20.582031 19.402344 21.027344 18.851562 21.027344 L 4.960938 21.027344 C 4.414062 21.027344 3.96875 20.582031 3.96875 20.03125 L 3.96875 3.164062 C 3.96875 2.617188 4.414062 2.171875 4.960938 2.171875 Z M 4.960938 2.171875 "/>
<path style="fill:none;stroke-width:8;stroke-linecap:round;stroke-linejoin:round;stroke:rgb(100%,65.490198%,14.901961%);stroke-opacity:1;stroke-dasharray:16.000002,16.000002;stroke-dashoffset:7.200001;stroke-miterlimit:4;" d="M 148.152519 -147.506445 L 148.152519 212.292529 L 391.545943 212.292529 C 397.462044 212.292529 402.128265 207.626308 402.128265 201.710206 L 402.128265 -136.924123 C 402.128265 -142.756899 397.462044 -147.506445 391.545943 -147.506445 Z M 148.152519 -147.506445 " transform="matrix(0.0468795,0,0,0.0468795,0,10.079087)"/>
<path style="fill-rule:nonzero;fill:url(#linear2);stroke-width:11.338583;stroke-linecap:round;stroke-linejoin:miter;stroke:rgb(12.941177%,12.941177%,12.941177%);stroke-opacity:1;stroke-miterlimit:4;" d="M 399.961827 175.101398 C 355.556616 175.101398 319.969461 210.688553 319.969461 255.093763 L 319.969461 1614.963974 C 319.969461 1659.369184 355.556616 1695.27127 399.961827 1695.27127 L 519.950375 1695.27127 L 519.950375 175.101398 Z M 399.961827 175.101398 " transform="matrix(0.0124035,0,0,0.0124035,0,0)"/>
<path style=" stroke:none;fill-rule:nonzero;fill:rgb(0%,0%,0%);fill-opacity:0.196078;" d="M 4.960938 20.96875 C 4.410156 20.96875 3.96875 20.527344 3.96875 19.976562 L 3.96875 19.851562 C 3.96875 20.402344 4.410156 20.84375 4.960938 20.84375 L 18.851562 20.84375 C 19.402344 20.84375 19.84375 20.402344 19.84375 19.851562 L 19.84375 19.976562 C 19.84375 20.527344 19.402344 20.96875 18.851562 20.96875 Z M 4.960938 20.96875 "/>
<path style="fill-rule:nonzero;fill:url(#linear3);stroke-width:3;stroke-linecap:round;stroke-linejoin:round;stroke:rgb(12.941177%,12.941177%,12.941177%);stroke-opacity:1;stroke-miterlimit:4;" d="M 328.052006 -168.671091 L 328.052006 85.304656 C 343.967153 42.975365 354.549476 42.975365 370.381297 85.304656 L 370.381297 -168.671091 Z M 328.052006 -168.671091 " transform="matrix(0.0468795,0,0,0.0468795,0,10.079087)"/>
<path style=" stroke:none;fill-rule:nonzero;fill:rgb(100%,100%,100%);fill-opacity:0.392157;" d="M 4.960938 2.226562 C 4.410156 2.226562 3.96875 2.671875 3.96875 3.21875 L 3.96875 3.34375 C 3.96875 2.792969 4.410156 2.351562 4.960938 2.351562 L 18.851562 2.351562 C 19.402344 2.351562 19.84375 2.792969 19.84375 3.34375 L 19.84375 3.21875 C 19.84375 2.671875 19.402344 2.226562 18.851562 2.226562 Z M 4.960938 2.226562 "/>
<path style=" stroke:none;fill-rule:nonzero;fill:rgb(12.941177%,12.941177%,12.941177%);fill-opacity:1;" d="M 4.960938 2.101562 C 4.375 2.101562 3.898438 2.578125 3.898438 3.164062 L 3.898438 20.03125 C 3.898438 20.621094 4.375 21.097656 4.960938 21.097656 L 18.851562 21.097656 C 19.441406 21.097656 19.914062 20.621094 19.914062 20.03125 L 19.914062 3.164062 C 19.914062 2.578125 19.441406 2.101562 18.851562 2.101562 Z M 4.960938 2.242188 L 18.851562 2.242188 C 19.367188 2.242188 19.773438 2.652344 19.773438 3.164062 L 19.773438 20.03125 C 19.773438 20.546875 19.367188 20.957031 18.851562 20.957031 L 4.960938 20.957031 C 4.449219 20.957031 4.039062 20.546875 4.039062 20.03125 L 4.039062 3.164062 C 4.039062 2.652344 4.449219 2.242188 4.960938 2.242188 Z M 4.960938 2.242188 "/>
<path style=" stroke:none;fill-rule:nonzero;fill:url(#linear4);" d="M 3.96875 6.886719 L 6.449219 6.886719 L 6.449219 7.878906 L 3.96875 7.878906 Z M 3.96875 6.886719 "/>
<path style=" stroke:none;fill-rule:nonzero;fill:rgb(0%,0%,0%);fill-opacity:0.235294;" d="M 3.96875 7.878906 L 3.96875 8.25 L 6.449219 8.25 L 6.449219 7.878906 Z M 3.96875 7.878906 "/>
<path style=" stroke:none;fill-rule:nonzero;fill:rgb(100%,100%,100%);fill-opacity:0.392157;" d="M 3.96875 6.886719 L 3.96875 7.132812 L 6.449219 7.132812 L 6.449219 6.886719 Z M 3.96875 6.886719 "/>
<path style="fill:none;stroke-width:3;stroke-linecap:round;stroke-linejoin:round;stroke:rgb(12.941177%,12.941177%,12.941177%);stroke-opacity:1;stroke-miterlimit:4;" d="M 84.658596 -20.472602 L 137.570209 -20.472602 L 137.570209 0.692043 L 84.658596 0.692043 Z M 84.658596 -20.472602 " transform="matrix(0.0468795,0,0,0.0468795,-0.00000062506,7.846464)"/>
<path style=" stroke:none;fill-rule:nonzero;fill:url(#linear5);" d="M 3.96875 15.070312 L 6.449219 15.070312 L 6.449219 16.0625 L 3.96875 16.0625 Z M 3.96875 15.070312 "/>
<path style=" stroke:none;fill-rule:nonzero;fill:rgb(0%,0%,0%);fill-opacity:0.235294;" d="M 3.96875 16.0625 L 3.96875 16.4375 L 6.449219 16.4375 L 6.449219 16.0625 Z M 3.96875 16.0625 "/>
<path style=" stroke:none;fill-rule:nonzero;fill:rgb(100%,100%,100%);fill-opacity:0.392157;" d="M 3.96875 15.070312 L 3.96875 15.320312 L 6.449219 15.320312 L 6.449219 15.070312 Z M 3.96875 15.070312 "/>
<path style="fill:none;stroke-width:3;stroke-linecap:round;stroke-linejoin:round;stroke:rgb(12.941177%,12.941177%,12.941177%);stroke-opacity:1;stroke-miterlimit:4;" d="M 84.658596 -20.530951 L 137.570209 -20.530951 L 137.570209 0.633695 L 84.658596 0.633695 Z M 84.658596 -20.530951 " transform="matrix(0.0468795,0,0,0.0468795,-0.00000062506,16.032793)"/>
<path style=" stroke:none;fill-rule:nonzero;fill:rgb(0%,0%,0%);fill-opacity:0.235294;" d="M 16.371094 12.589844 C 16.0625 12.589844 15.753906 13.085938 15.378906 14.078125 L 15.378906 14.574219 C 16.125 12.589844 16.621094 12.589844 17.363281 14.574219 L 17.363281 14.078125 C 16.992188 13.085938 16.683594 12.589844 16.371094 12.589844 Z M 16.371094 12.589844 "/>
</g>
</svg>
